svgs/sharp-regular/people-group.svg

<svg xmlns="http://www.w3.org/2000/svg" viewBox="0 0 640 512"><!--! Font Awesome Pro 6.6.0 by @fontawesome - https://fontawesome.com License - https://fontawesome.com/license (Commercial License) Copyright 2024 Fonticons, Inc. --><path d="M264 88a56 56 0 1 1 112 0A56 56 0 1 1 264 88zm-8 156.7l-23.1 40.4L256 317.4l0-72.7zM256 400L176 288l64-112 160 0 64 112L384 400l0 56 0 24-24 0-80 0-24 0 0-24 0-56zm128-82.6l23.1-32.3L384 244.7l0 72.7zM336 224l-32 0 0 208 32 0 0-208zM208 167.5l0-7.5-48 0L48 160 0 272 64 384l0 40 0 24 24 0 80 0 24 0 0-24 0-40 0-18.5-48-67.2 0 5.7 0 96-32 0 0-192 32 0 0 59.2 0 4.8 0 7.5 64-112zm240 198l0 18.5 0 40 0 24 24 0 80 0 24 0 0-24 0-40 64-112L592 160l-112 0-48 0 0 7.5 64 112 0-7.5 0-4.8 0-59.2 32 0 0 192-32 0 0-96 0-5.7-48 67.2zM128 128a48 48 0 1 0 0-96 48 48 0 1 0 0 96zM53.5 268.9L64 244.5l0 42.7L53.5 268.9zM512 128a48 48 0 1 0 0-96 48 48 0 1 0 0 96zm64 159.3l0-42.7 10.5 24.4L576 287.3z"/></svg>

<svg xmlns="http://www.w3.org/2000/svg" viewBox="0 0 640 512"><!--! Font Awesome Pro 6.4.2 by @fontawesome - https://fontawesome.com License - https://fontawesome.com/license (Commercial License) Copyright 2023 Fonticons, Inc. --><path d="M264 88a56 56 0 1 1 112 0A56 56 0 1 1 264 88zm-8 156.7l-23.1 40.4L256 317.4V244.7zM256 400L176 288l64-112H400l64 112L384 400v56 24H360 280 256V456 400zm128-82.6l23.1-32.3L384 244.7v72.7zM336 224H304V432h32V224zM208 167.5V160H160 48L0 272 64 384v40 24H88h80 24V424 384 365.5l-48-67.2V304v96H112V208h32v59.2V272v7.5l64-112zm240 198V384v40 24h24 80 24V424 384l64-112L592 160H480 432v7.5l64 112V272v-4.8V208h32V400H496V304v-5.7l-48 67.2zM128 128a48 48 0 1 0 0-96 48 48 0 1 0 0 96zM53.5 268.9L64 244.5v42.7L53.5 268.9zM512 128a48 48 0 1 0 0-96 48 48 0 1 0 0 96zm64 159.3V244.5l10.5 24.4L576 287.3z"/></svg>
